teeny/solid/bed-double.svg

<svg viewBox="0 0 15 15" xmlns="http://www.w3.org/2000/svg"><g><path d="M0 0h15v6h-1V1H1v5H0V0Z"/><path d="M6 6H2V5h4v1Z"/><path d="M0 15h1v-4h13v4h1V7H0v8Z"/><path d="M9 6h4V5H9v1Z"/></g></svg>

<svg width="15" height="15" viewBox="0 0 15 15" fill="none" xmlns="http://www.w3.org/2000/svg">
<path d="M0 0H15V6H14V1H1V6H0V0Z" fill="black"/>
<path d="M6 6H2V5H6V6Z" fill="black"/>
<path d="M0 15H1V11H14V15H15V7H0V15Z" fill="black"/>
<path d="M9 6H13V5H9V6Z" fill="black"/>
</svg>
